source/img/services/icon-services/icon-graph-1.svg

<svg width="200" height="130" viewBox="0 0 200 130" fill="none" xmlns="http://www.w3.org/2000/svg">
<g filter="url(#filter0_d)">
<path d="M121.852 32.5313V88.9918L106.444 80.0924V23.6407L121.852 32.5313Z" fill="#072D58"/>
<path d="M137.269 23.6406L121.852 32.5312L106.444 23.6406L121.852 14.7412L137.269 23.6406Z" fill="#155399"/>
<path d="M121.853 32.5313V88.9918L137.269 80.0924V23.6407L121.853 32.5313Z" fill="#0A3D76"/>
</g>
<g filter="url(#filter1_d)">
<path d="M102.043 52.0037V100.282L86.6265 91.3826V43.1132L102.043 52.0037Z" fill="#8A1729"/>
<path d="M117.451 43.1132L102.043 52.0038L86.6265 43.1132L102.043 34.2137L117.451 43.1132Z" fill="#E84862"/>
<path d="M102.043 52.0037V100.282L117.451 91.3826V43.1132L102.043 52.0037Z" fill="#A62E41"/>
</g>
<g filter="url(#filter2_d)">
<path d="M82.2254 68.7312V111.572L66.8174 102.673V59.8406L82.2254 68.7312Z" fill="#5C85BB"/>
<path d="M97.6333 59.8406L82.2254 68.7312L66.8174 59.8406L82.2254 50.9412L97.6333 59.8406Z" fill="#78B3FF"/>
<path d="M82.2251 68.7312V111.572L97.6331 102.673V59.8406L82.2251 68.7312Z" fill="#71A0DD"/>
</g>
<g filter="url(#filter3_d)">
<path d="M62.408 90.5503V122.872L47 113.972V81.6509L62.408 90.5503Z" fill="#D36780"/>
<path d="M77.8248 81.6508L62.408 90.5502L47 81.6508L62.408 72.7513L77.8248 81.6508Z" fill="#FF6D8F"/>
<path d="M62.4077 90.5503V122.872L77.8245 113.972V81.6509L62.4077 90.5503Z" fill="#F985A0"/>
</g>
<path d="M152.199 75.1865L146.027 76.2934L147.196 76.9664L57.0415 129.017L58.7417 130L148.896 77.9493L150.065 78.6223L152.199 75.1865Z" fill="url(#paint0_linear)"/>
<path d="M71.5645 26.5629L73.3532 27.3687L74.2476 29.37L73.8756 31.6634L72.7776 32.9474H70.4664L69.5366 27.4395L71.5645 26.5629Z" fill="#FFB294"/>
<path d="M79.5516 59.8051C78.9052 61.4168 78.8432 63.2587 80.2158 64.5249C81.9248 64.6932 83.2885 64.5249 84.1032 63.6394C86.6535 63.5774 89.0355 63.3826 90.4346 62.4883C91.1985 62.1358 91.8725 61.6148 92.4062 60.9646C92.94 60.3143 93.3194 59.5516 93.5162 58.7337C93.5506 58.4835 93.5248 58.2288 93.4408 57.9907C93.3569 57.7526 93.2173 57.538 93.0336 57.3647C92.85 57.1915 92.6276 57.0646 92.385 56.9947C92.1424 56.9247 91.8866 56.9137 91.6389 56.9626L85.4403 57.5471L82.5978 54.5098L79.2417 58.2024L79.5516 59.8051Z" fill="black"/>
<path d="M51.9058 75.8685C51.3347 77.7639 51.1717 79.7588 51.4277 81.7218C52.604 82.3092 53.9139 82.5779 55.2265 82.501L56.9975 81.6155L59.3973 81.0753C61.5225 80.1367 62.0981 77.3296 59.5124 77.0108L57.6263 76.9931L56.1386 73.2385L53.1101 73.3625L51.9058 75.8685Z" fill="black"/>
<path d="M51.3657 75.895C53.0393 77.4977 56.6168 77.666 57.5643 76.9487L60.0703 65.3219L62.0893 55.9709L64.1525 42.4579L64.2854 41.5724L61.8768 40.9082L55.3859 39.1372C55.2531 40.7931 55.0583 42.6793 54.8812 44.6982C54.5568 48.127 54.4209 51.5709 54.4739 55.0145C52.5257 62.9576 51.2949 68.253 51.3657 75.895Z" fill="#032449"/>
<path d="M58.3521 44.6539C59.8397 47.7709 67.4286 46.5401 76.0092 46.7172C75.6816 51.2599 76.8328 56.0948 78.958 61.1422C81.8005 62.683 84.6696 60.8146 85.5551 58.0695C84.7227 53.9695 83.1199 47.5496 82.7214 41.5723C82.6844 40.9385 82.459 40.3303 82.074 39.8254C81.6891 39.3206 81.1622 38.9422 80.5608 38.7387L65.7638 36.3301C56.1383 37.8177 62.939 43.9544 58.3521 44.6539Z" fill="#032449"/>
<path d="M55.2178 30.6983C55.262 34.382 53.8186 40.0228 53.8186 40.0228C53.8186 40.0228 54.04 41.661 56.6346 43.5648C57.5602 44.2354 58.5511 44.811 59.5922 45.2827C64.0198 47.3194 69.8996 46.8324 72.7775 42.697C73.5027 41.6478 74.0032 40.4599 74.2475 39.2081C74.2475 39.2081 71.2102 33.6559 71.4315 29.2903C71.7061 23.9772 71.9186 21.2233 70.3955 18.6641C70.3955 18.6641 65.6049 13.7849 63.1166 12.3504C58.5561 9.69386 55.8553 10.9336 55.8553 10.9336C55.8553 10.9336 52.8623 12.5983 52.8888 17.5218C52.942 20.32 55.1823 27.0145 55.2178 30.6983Z" fill="#0A3D76"/>
<g style="mix-blend-mode:multiply" opacity="0.3">
<path d="M56.6343 43.5648C57.5599 44.2354 58.5508 44.811 59.5919 45.2827C64.0195 47.3194 69.8993 46.8324 72.7772 42.697L72.5381 42.2454C68.3231 37.6939 69.2972 33.2663 71.1213 26.3061L63.5679 26.2441C60.1208 31.4955 57.763 37.3854 56.6343 43.5648Z" fill="#2A3D4F"/>
</g>
<path d="M62.1426 46.6464L60.8497 51.1625L59.8314 52.8273L57.9629 54.0493H56.0768L55.1293 53.6596L53.8719 53.0841C53.2254 52.6767 53.6151 52.2694 54.0932 52.4111C53.925 51.9683 54.0135 51.7646 54.4917 51.9772L55.3772 52.6147L56.9712 52.2517C57.0965 51.3082 57.316 50.3797 57.6264 49.48C58.0128 48.7772 58.4858 48.1257 59.0344 47.5407L59.6277 44.6185L62.5499 45.3535L62.1426 46.6464Z" fill="#FFB294"/>
<path d="M71.1216 26.2795L62.656 47.3636C61.9388 48.745 58.6092 47.7356 57.7769 45.7077L63.9755 24.9778C65.472 19.0449 67.6946 17.3712 69.4125 18.0442C71.3518 19.8684 72.6004 22.3744 71.1216 26.2795Z" fill="#0A3D76"/>
<path d="M64.9143 11.7306L67.0661 10.4731C68.0402 9.95954 68.421 8.09996 68.5804 6.73626L68.8992 3.87605L68.4121 2.10501L61.7442 1.72424L60.0352 6.15182L60.8321 10.5794L64.9143 11.7306Z" fill="#FFB294"/>
<path d="M65.7107 13.8469V10.1454L61.4956 8.55151L59.5298 10.7387C60.6987 12.678 62.939 13.5015 65.7107 13.8469Z" fill="#FFB294"/>
<path d="M67.2249 15.5116L66.0295 13.5015C63.1693 13.0499 60.4153 11.4825 59.9371 10.3048L58.3521 10.8627L61.3008 13.9443L67.2249 15.5116Z" fill="#E6E6E6"/>
<path d="M69.5363 17.9026C69.5363 17.9026 63.1429 16.4769 59.3971 13.8469C57.4756 12.5098 57.2808 11.3055 57.2808 11.3055C57.387 10.8805 58.4231 10.3403 59.1758 10.42C59.5831 12.6958 64.9936 14.6173 67.1454 15.1044L69.5363 17.9026Z" fill="#072F5E"/>
<path d="M68.8455 4.38076L67.1276 5.71789C66.85 5.93837 66.6639 6.25382 66.6051 6.60341L66.366 8.02909L65.4274 8.7375V10.1809C64.8778 10.7163 64.1714 11.0618 63.4114 11.1669C62.6514 11.2721 61.8777 11.1314 61.2035 10.7653C59.4324 9.87982 59.7158 9.61416 59.4324 6.33775C59.2376 4.24794 59.3793 2.22896 61.4514 0.78557C63.3464 -0.524993 67.1276 -0.0999453 68.4735 1.3523C69.1377 2.09613 69.5362 3.49525 68.8455 4.38076Z" fill="black"/>
<path d="M65.206 7.67484C65.0341 7.96762 64.9425 8.30055 64.9403 8.64005C64.905 8.9465 64.967 9.25629 65.1174 9.52557C65.1986 9.65784 65.3264 9.75487 65.4756 9.7975C65.6247 9.84013 65.7845 9.82525 65.9233 9.7558C66.3595 9.2041 66.5938 8.5198 66.5874 7.81652C66.4811 7.0904 65.5956 7.14353 65.206 7.67484Z" fill="#FFB294"/>
<defs>
<filter id="filter0_d" x="104.444" y="12.7412" width="38.825" height="82.2506" filterUnits="userSpaceOnUse" color-interpolation-filters="sRGB">
<feFlood flood-opacity="0" result="BackgroundImageFix"/>
<feColorMatrix in="SourceAlpha" type="matrix" values="0 0 0 0 0 0 0 0 0 0 0 0 0 0 0 0 0 0 127 0"/>
<feOffset dx="2" dy="2"/>
<feGaussianBlur stdDeviation="2"/>
<feColorMatrix type="matrix" values="0 0 0 0 0 0 0 0 0 0 0 0 0 0 0 0 0 0 0.15 0"/>
<feBlend mode="normal" in2="BackgroundImageFix" result="effect1_dropShadow"/>
<feBlend mode="normal" in="SourceGraphic" in2="effect1_dropShadow" result="shape"/>
</filter>
<filter id="filter1_d" x="84.6265" y="32.2137" width="38.825" height="74.0683" filterUnits="userSpaceOnUse" color-interpolation-filters="sRGB">
<feFlood flood-opacity="0" result="BackgroundImageFix"/>
<feColorMatrix in="SourceAlpha" type="matrix" values="0 0 0 0 0 0 0 0 0 0 0 0 0 0 0 0 0 0 127 0"/>
<feOffset dx="2" dy="2"/>
<feGaussianBlur stdDeviation="2"/>
<feColorMatrix type="matrix" values="0 0 0 0 0 0 0 0 0 0 0 0 0 0 0 0 0 0 0.15 0"/>
<feBlend mode="normal" in2="BackgroundImageFix" result="effect1_dropShadow"/>
<feBlend mode="normal" in="SourceGraphic" in2="effect1_dropShadow" result="shape"/>
</filter>
<filter id="filter2_d" x="64.8174" y="48.9412" width="38.8159" height="68.6312" filterUnits="userSpaceOnUse" color-interpolation-filters="sRGB">
<feFlood flood-opacity="0" result="BackgroundImageFix"/>
<feColorMatrix in="SourceAlpha" type="matrix" values="0 0 0 0 0 0 0 0 0 0 0 0 0 0 0 0 0 0 127 0"/>
<feOffset dx="2" dy="2"/>
<feGaussianBlur stdDeviation="2"/>
<feColorMatrix type="matrix" values="0 0 0 0 0 0 0 0 0 0 0 0 0 0 0 0 0 0 0.15 0"/>
<feBlend mode="normal" in2="BackgroundImageFix" result="effect1_dropShadow"/>
<feBlend mode="normal" in="SourceGraphic" in2="effect1_dropShadow" result="shape"/>
</filter>
<filter id="filter3_d" x="45" y="70.7513" width="38.8248" height="58.1203" filterUnits="userSpaceOnUse" color-interpolation-filters="sRGB">
<feFlood flood-opacity="0" result="BackgroundImageFix"/>
<feColorMatrix in="SourceAlpha" type="matrix" values="0 0 0 0 0 0 0 0 0 0 0 0 0 0 0 0 0 0 127 0"/>
<feOffset dx="2" dy="2"/>
<feGaussianBlur stdDeviation="2"/>
<feColorMatrix type="matrix" values="0 0 0 0 0 0 0 0 0 0 0 0 0 0 0 0 0 0 0.15 0"/>
<feBlend mode="normal" in2="BackgroundImageFix" result="effect1_dropShadow"/>
<feBlend mode="normal" in="SourceGraphic" in2="effect1_dropShadow" result="shape"/>
</filter>
<linearGradient id="paint0_linear" x1="149.266" y1="102.593" x2="59.9401" y2="99.2637" gradientUnits="userSpaceOnUse">
<stop stop-color="#A62E41"/>
<stop offset="1" stop-color="#E13152"/>
</linearGradient>
</defs>
</svg>

<svg width="200" height="130" fill="none" xmlns="http://www.w3.org/2000/svg"><g filter="url(#filter0_d)"><path d="M121.852 32.531v56.46l-15.408-8.899V23.641l15.408 8.89z" fill="#072D58"/><path d="M137.269 23.64l-15.417 8.891-15.408-8.89 15.408-8.9 15.417 8.9z" fill="#155399"/><path d="M121.853 32.531v56.46l15.416-8.899V23.641l-15.416 8.89z" fill="#0A3D76"/></g><g filter="url(#filter1_d)"><path d="M102.043 52.004v48.278l-15.417-8.9V43.114l15.417 8.89z" fill="#8A1729"/><path d="M117.451 43.113l-15.408 8.89-15.417-8.89 15.417-8.9 15.408 8.9z" fill="#E84862"/><path d="M102.043 52.004v48.278l15.408-8.9V43.114l-15.408 8.89z" fill="#A62E41"/></g><g filter="url(#filter2_d)"><path d="M82.225 68.731v42.841l-15.408-8.899V59.841l15.408 8.89z" fill="#5C85BB"/><path d="M97.633 59.84l-15.408 8.891-15.408-8.89 15.408-8.9 15.408 8.9z" fill="#78B3FF"/><path d="M82.225 68.731v42.841l15.408-8.899V59.841l-15.408 8.89z" fill="#71A0DD"/></g><g filter="url(#filter3_d)"><path d="M62.408 90.55v32.322L47 113.972V81.651l15.408 8.9z" fill="#D36780"/><path d="M77.825 81.65l-15.417 8.9L47 81.65l15.408-8.899 15.417 8.9z" fill="#FF6D8F"/><path d="M62.408 90.55v32.322l15.416-8.9V81.651l-15.416 8.9z" fill="#F985A0"/></g><path d="M152.199 75.186l-6.172 1.107 1.169.673-90.154 52.051 1.7.983 90.154-52.05 1.169.672 2.134-3.436z" fill="url(#paint0_linear)"/><path d="M71.564 26.563l1.79.806.894 2.001-.372 2.293-1.098 1.284h-2.312l-.93-5.508 2.028-.876z" fill="#FFB294"/><path d="M79.552 59.805c-.647 1.612-.709 3.454.664 4.72 1.709.168 3.073 0 3.887-.886 2.55-.062 4.933-.256 6.332-1.15a5.57 5.57 0 003.081-3.755 1.584 1.584 0 00-1.877-1.771l-6.199.584-2.842-3.037-3.356 3.692.31 1.603zM51.906 75.868a14.01 14.01 0 00-.478 5.854 7.519 7.519 0 003.799.779l1.77-.886 2.4-.54c2.126-.938 2.701-3.745.115-4.064l-1.886-.018-1.487-3.754-3.029.123-1.204 2.507z" fill="#000"/><path d="M51.366 75.895c1.673 1.603 5.25 1.771 6.198 1.054l2.506-11.627 2.02-9.351 2.063-13.513.132-.886-2.408-.664-6.491-1.77c-.133 1.655-.328 3.541-.505 5.56a94.144 94.144 0 00-.407 10.316c-1.948 7.944-3.18 13.239-3.108 20.881z" fill="#032449"/><path d="M58.352 44.654c1.488 3.117 9.077 1.886 17.657 2.063-.327 4.543.824 9.378 2.949 14.425 2.843 1.541 5.712-.327 6.597-3.073-.832-4.1-2.435-10.52-2.834-16.497a3.187 3.187 0 00-2.16-2.833L65.764 36.33c-9.626 1.488-2.825 7.624-7.412 8.324z" fill="#032449"/><path d="M55.218 30.698c.044 3.684-1.4 9.325-1.4 9.325s.222 1.638 2.817 3.542c.925.67 1.916 1.246 2.957 1.718 4.428 2.036 10.308 1.55 13.186-2.586a9.254 9.254 0 001.47-3.489s-3.038-5.552-2.817-9.918c.275-5.313.488-8.067-1.035-10.626 0 0-4.791-4.88-7.28-6.314-4.56-2.656-7.26-1.416-7.26-1.416s-2.994 1.664-2.967 6.588c.053 2.798 2.293 9.493 2.329 13.176z" fill="#0A3D76"/><path d="M56.634 43.565c.926.67 1.917 1.246 2.958 1.718 4.427 2.036 10.307 1.55 13.185-2.586l-.239-.452c-4.215-4.551-3.24-8.979-1.417-15.939l-7.553-.062a46.93 46.93 0 00-6.934 17.32z" fill="#2A3D4F" opacity=".3"/><path d="M62.143 46.646l-1.293 4.517-1.019 1.664-1.868 1.222h-1.886l-.948-.39-1.257-.575c-.647-.407-.257-.815.221-.673-.168-.443-.08-.646.399-.434l.885.638 1.594-.363a14.25 14.25 0 01.655-2.772 9.588 9.588 0 011.408-1.94l.594-2.922 2.922.735-.407 1.293z" fill="#FFB294"/><path d="M71.122 26.28l-8.466 21.084c-.717 1.381-4.047.372-4.88-1.656l6.2-20.73c1.496-5.933 3.719-7.607 5.436-6.934 1.94 1.824 3.188 4.33 1.71 8.235z" fill="#0A3D76"/><path d="M64.914 11.73l2.152-1.257c.974-.513 1.355-2.373 1.514-3.737l.32-2.86-.488-1.771-6.668-.38-1.709 4.427.797 4.427 4.082 1.152z" fill="#FFB294"/><path d="M65.71 13.847v-3.702l-4.214-1.593-1.966 2.187c1.169 1.939 3.409 2.762 6.18 3.108z" fill="#FFB294"/><path d="M67.225 15.512l-1.195-2.01c-2.86-.452-5.615-2.02-6.093-3.197l-1.585.558 2.949 3.081 5.924 1.568z" fill="#E6E6E6"/><path d="M69.536 17.903s-6.393-1.426-10.139-4.056c-1.921-1.337-2.116-2.541-2.116-2.541.106-.425 1.142-.966 1.895-.886.407 2.276 5.818 4.197 7.97 4.684l2.39 2.799z" fill="#072F5E"/><path d="M68.846 4.38l-1.718 1.338c-.278.22-.464.536-.523.885l-.239 1.426-.939.709v1.443a3.595 3.595 0 01-4.224.584c-1.77-.885-1.487-1.15-1.77-4.427-.195-2.09-.054-4.109 2.018-5.552 1.895-1.311 5.677-.886 7.023.566.664.744 1.062 2.143.371 3.029z" fill="#000"/><path d="M65.206 7.675a1.931 1.931 0 00-.266.965 1.47 1.47 0 00.177.886.62.62 0 00.806.23c.436-.552.67-1.236.664-1.94-.106-.726-.991-.672-1.381-.141z" fill="#FFB294"/><defs><filter id="filter0_d" x="104.444" y="12.741" width="38.825" height="82.251" filterUnits="userSpaceOnUse" color-interpolation-filters="sRGB"><feFlood flood-opacity="0" result="BackgroundImageFix"/><feColorMatrix in="SourceAlpha" values="0 0 0 0 0 0 0 0 0 0 0 0 0 0 0 0 0 0 127 0"/><feOffset dx="2" dy="2"/><feGaussianBlur stdDeviation="2"/><feColorMatrix values="0 0 0 0 0 0 0 0 0 0 0 0 0 0 0 0 0 0 0.15 0"/><feBlend in2="BackgroundImageFix" result="effect1_dropShadow"/><feBlend in="SourceGraphic" in2="effect1_dropShadow" result="shape"/></filter><filter id="filter1_d" x="84.626" y="32.214" width="38.825" height="74.068" filterUnits="userSpaceOnUse" color-interpolation-filters="sRGB"><feFlood flood-opacity="0" result="BackgroundImageFix"/><feColorMatrix in="SourceAlpha" values="0 0 0 0 0 0 0 0 0 0 0 0 0 0 0 0 0 0 127 0"/><feOffset dx="2" dy="2"/><feGaussianBlur stdDeviation="2"/><feColorMatrix values="0 0 0 0 0 0 0 0 0 0 0 0 0 0 0 0 0 0 0.15 0"/><feBlend in2="BackgroundImageFix" result="effect1_dropShadow"/><feBlend in="SourceGraphic" in2="effect1_dropShadow" result="shape"/></filter><filter id="filter2_d" x="64.817" y="48.941" width="38.816" height="68.631" filterUnits="userSpaceOnUse" color-interpolation-filters="sRGB"><feFlood flood-opacity="0" result="BackgroundImageFix"/><feColorMatrix in="SourceAlpha" values="0 0 0 0 0 0 0 0 0 0 0 0 0 0 0 0 0 0 127 0"/><feOffset dx="2" dy="2"/><feGaussianBlur stdDeviation="2"/><feColorMatrix values="0 0 0 0 0 0 0 0 0 0 0 0 0 0 0 0 0 0 0.15 0"/><feBlend in2="BackgroundImageFix" result="effect1_dropShadow"/><feBlend in="SourceGraphic" in2="effect1_dropShadow" result="shape"/></filter><filter id="filter3_d" x="45" y="70.751" width="38.825" height="58.12" filterUnits="userSpaceOnUse" color-interpolation-filters="sRGB"><feFlood flood-opacity="0" result="BackgroundImageFix"/><feColorMatrix in="SourceAlpha" values="0 0 0 0 0 0 0 0 0 0 0 0 0 0 0 0 0 0 127 0"/><feOffset dx="2" dy="2"/><feGaussianBlur stdDeviation="2"/><feColorMatrix values="0 0 0 0 0 0 0 0 0 0 0 0 0 0 0 0 0 0 0.15 0"/><feBlend in2="BackgroundImageFix" result="effect1_dropShadow"/><feBlend in="SourceGraphic" in2="effect1_dropShadow" result="shape"/></filter><linearGradient id="paint0_linear" x1="149.266" y1="102.593" x2="59.94" y2="99.264" gradientUnits="userSpaceOnUse"><stop stop-color="#A62E41"/><stop offset="1" stop-color="#E13152"/></linearGradient></defs></svg>
